X: 43127
T: Wink And She'll Follow You
R: slip jig
M: 9/8
K: Edorian
E2B BAF Bcd|E2B BAF A2F|E2B BAF Bcd|edB dBA A2F|
E2B BAF Bcd|E2B BAF A2F|E2B BAF Bcd|edB dBA A2c||
d2f fdB Bcd|c2 e ecA ABc|d2f fdB Bcd|cBA BAF A2c|
d2f fdB Bcd|c2 e ecA Ace|~a3 aed Bcd|cBA BAF A2F|

